!!!COM: Schiørring, Niels
!!!CDT: 1743-1798
!!!OPR@@DA: Choral-Bog
!!!ONM: 84
!!!OTL@@DA: D ſtore Gud! vi love dig
**kern	**kern	**kern	**kern	**fb	**kern	**kern	**kern	**kern
*part6	*part5	*part6	*part5	*part5	*part4	*part3	*part2	*part1
*staff8	*staff6	*staff7	*staff5	*	*staff4	*staff3	*staff2	*staff1
*clefF4	*clefF4	*clefC1	*clefC1	*	*clefF4	*clefC4	*clefC3	*clefC1
*k[]	*k[]	*k[]	*k[]	*	*k[]	*k[]	*k[]	*k[]
*M4/4	*M4/4	*M4/4	*M4/4	*	*M4/4	*M4/4	*M4/4	*M4/4
*met(c)	*met(c)	*met(c)	*met(c)	*	*met(c)	*met(c)	*met(c)	*met(c)
*MM180	*	*MM180	*MM180	*MM180	*MM180	*MM180	*MM180	*MM180
*	*^	*	*^	*	*	*	*	*
2E	2E	2G	2e	2e	2B	.	2E	2G	2B	2e
=1	=1	=1	=1	=1	=1	=1	=1	=1	=1	=1
*	*	*	*	*	*^	*	*	*	*	*
2C	2C	2G	2g	2g	2ryy	2e\	.	2C	2G	2e	2g
*	*v	*v	*	*	*	*	*	*	*	*	*
2BB	2BB	2g	2g	2B	2d\	.	2BB	2d	2d	2g
=2	=2	=2	=2	=2	=2	=2	=2	=2	=2	=2
2AA	2AA	2a	2a	2c	2e\	.	2AA	2c	2e	2a
2F	2F	2a	2a	2c	2f\	.	2F	2c	2f	2a
=3	=3	=3	=3	=3	=3	=3	=3	=3	=3	=3
2E	2E	2cc	2cc	2c	2g\	.	2E	2c	2g	2cc
2F	2F	2a	2a	2c	2f\	.	2F	2c	2f	2a
=4	=4	=4	=4	=4	=4	=4	=4	=4	=4	=4
2AA	2AA	2a	2a	2c	2e\	.	2AA	2c	2e	2a
2A	2A	2cc	2cc	2e	2a\	.	2A	2e	2a	2cc
=5	=5	=5	=5	=5	=5	=5	=5	=5	=5	=5
2E	2E	2cc	2cc	2e	2g\	.	2E	2e	2g	2cc
2F#X	2F#X	2cc	2cc	2d	2a\	.	2F#X	2d	2a	2cc
=6	=6	=6	=6	=6	=6	=6	=6	=6	=6	=6
2G	2G	2b	2b	2d	2g\	.	2G	2d	2g	2b
2C	2C	2cc	2cc	2e	2g\	.	2C	2e	[2g	2cc
=7	=7	=7	=7	=7	=7	=7	=7	=7	=7	=7
*	*	*	*	*	*	*	*^	*	*	*
2D	2D	2b	2b	2.d	2g\	.	2D	2D	2d	2g]	2b
2DD	2DD	2a	2a	.	2f#X\	.	2D	2DD	(4d	2f#X	2a
.	.	.	.	4c	.	.	.	.	4c)	.	.
*	*	*	*	*	*	*	*v	*v	*	*	*
=8	=8	=8	=8	=8	=8	=8	=8	=8	=8	=8
2GG	2GG	2g	2g	2B	2d\	.	2GG	2B	2g	2g
*	*^	*	*	*	*	*	*	*	*	*
2E	2E	2B-X	2cc	2cc	2%5ryy	2g\	.	2E	2B-X	2g	2cc
*	*	*	*	*	*v	*v	*	*	*	*	*
=9	=9	=9	=9	=9	=9	=9	=9	=9	=9	=9
2F	2F	2A	2cc	2cc	2a	.	2F	2A	2a	2cc
2F#X	2F#X	[2d	2cc	2cc	2a	.	2F#X	[2d	2a	2cc
=10	=10	=10	=10	=10	=10	=10	=10	=10	=10	=10
2G#X	2G#X	2d]	2b	2b	1e	.	2G#X	2d]	2e	2b
2A	2A	2c	2a	2a	.	.	2A	2c	2e	2a
=11	=11	=11	=11	=11	=11	=11	=11	=11	=11	=11
*	*	*	*	*	*^	*	*	*	*	*
2D	2D	2d	2b	2b	2ryy	2f\	.	2D	2d	2f	2b
2C#X	2C#X	4A	2a	2a	2ryy	4e\	.	2C#X	2e	(4e	2a
*	*v	*v	*	*	*	*	*	*	*	*	*
=12	=12	=12	=12	=12	=12	=12	=12	=12	=12	=12
2D	2D	2a	2a	2d	4g\]	.	2D	2d	4g]	2a
*	*^	*	*	*	*	*	*	*	*	*
2A	2A	2cni	2a	2a	1.ryy	2e\	.	2A	2c	2e	2a
*	*	*	*	*	*v	*v	*	*	*	*	*
=13	=13	=13	=13	=13	=13	=13	=13	=13	=13	=13
2F	2F	1c	2a	2a	2.f	.	2F	2c	[2f	2a
[2C	[2C	.	2g	2g	.	.	[2C	2c	(4f]	2g
=14	=14	=14	=14	=14	=14	=14	=14	=14	=14	=14
*	*	*	*	*	*^	*	*	*	*	*
2C]	2C]	2A	2a	2a	2f#X	2d\	.	2C]	(4A	2f#X	2a
.	.	.	.	.	.	.	.	.	4d)	.	.
2BB	2BB	[2G	2b	2b	2g	2d\	.	2BB	2d	[2g	2b
=15	=15	=15	=15	=15	=15	=15	=15	=15	=15	=15	=15
2AA	2AA	2G]	2cc	2cc	2e	1r	.	2AA	2c	2g]	2cc
2D	2D	2F#X	2a	2a	2d	.	.	2D	2d	2f#X	2a
=16	=16	=16	=16	=16	=16	=16	=16	=16	=16	=16	=16
*	*	*	*	*	*	*^	*	*	*	*	*
2GG	2GG	2G	2g	2g	2ryy	2d/	2B\	.	2GG	2B	2g	2g
*	*v	*v	*	*	*	*	*	*	*	*	*	*
*	*	*	*	*	*v	*v	*	*	*	*	*
2AA	2AA	2cc	2cc	2e	2a\	.	2AA	2A	2e	2cc
=17	=17	=17	=17	=17	=17	=17	=17	=17	=17	=17
2C	2C	2cc	2cc	2e	2a\	.	2C	2A	2e	2cc
2D	2D	2cc	2cc	[2d	2f#X\	.	2D	[2d	2f#X	2cc
=18	=18	=18	=18	=18	=18	=18	=18	=18	=18	=18
2E	2E	2b	2b	2d]	2g#X\	.	2E	2d]	2g#X	2b
2F	2Fni	2a	2a	2c	2a\	.	2F	2c	2a	2a
=19	=19	=19	=19	=19	=19	=19	=19	=19	=19	=19
2GG#X	2GG#X	2b	2b	2d	2f\	.	2GG#X	2d	2f	2b
2AA	2AA	2a	2a	2c#X	4e\	.	2AA	2c#X	(4e	2a
=20	=20	=20	=20	=20	=20	=20	=20	=20	=20	=20
2D	2D	2a	2a	2d	2f\	.	2D	2d	2f	2a
*	*^	*	*	*	*	*	*	*	*	*
[2F	[2F	2cni	2a	2a	2%5ryy	4f\	.	[2F	2ci	(4f	2a
*	*	*	*	*	*v	*v	*	*	*	*	*
=21	=21	=21	=21	=21	=21	=21	=21	=21	=21	=21
2F]	2F]	2B	2a	2a	2d	.	2F]	2B	2d	2a
[2E	[2E	2c	2g	2g	2e	.	[2E	2c	2e	2g
=22	=22	=22	=22	=22	=22	=22	=22	=22	=22	=22
2E]	2E]	2c	2a	2a	2f	.	2E]	2c	2f	2a
2D	2D	2d	2b	2b	2f	.	2D	2d	2f	2b
*	*v	*v	*	*	*	*	*	*	*	*
=23	=23	=23	=23	=23	=23	=23	=23	=23	=23
*	*	*	*	*^	*	*	*	*	*
2C	2C	2cc	2cc	2e	2g\	.	2C	2e	2g	2cc
*	*^	*	*	*	*	*	*	*	*	*
2D	2D	4d	2a	2a	2ryy	2f#X\	.	2D	(4d	2f#X	2a
*	*v	*v	*	*	*	*	*	*	*	*	*
=24	=24	=24	=24	=24	=24	=24	=24	=24	=24	=24
2GG	2GG	2g	2g	2B	2d\	.	2GG	2B	2g	2g
2E	2E	2cc	2cc	2c	2g\	.	2E	2c	2g	2cc
=25	=25	=25	=25	=25	=25	=25	=25	=25	=25	=25
2F	2F	2cc	2cc	2c	2a\	.	2F	2c	2a	2cc
2C	2C	2cc	2cc	2e	2g\	.	2C	2e	2g	2cc
*	*	*	*	*v	*v	*	*	*	*	*
=26	=26	=26	=26	=26	=26	=26	=26	=26	=26
*	*^	*	*	*	*	*	*	*	*
2G	2G	2d	2b	2b	4g	.	2G	2d	(4g	2b
2A	2A	2c	2a	2a	4e	.	2A	2c	4e	2a
=27	=27	=27	=27	=27	=27	=27	=27	=27	=27	=27
*	*	*	*	*	*^	*	*	*	*	*
2G	2G	2d	2b	2b	2ryy	2g\	.	2G	2d	2g	2b
*	*v	*v	*	*	*	*	*	*	*	*	*
2C#X	2C#X	2a	2a	2e	2g\	.	2C#X	2e	2g	2a
=28	=28	=28	=28	=28	=28	=28	=28	=28	=28	=28
2D	2D	2a	2a	2d	2f\	.	2D	2d	2f	2a
*	*^	*	*	*	*	*	*	*	*	*
2F	2F	2cni	2a	2a	2%5ryy	2f\	.	2F	2c	2f	2a
*	*	*	*	*	*v	*v	*	*	*	*	*
=29	=29	=29	=29	=29	=29	=29	=29	=29	=29	=29
2D#X	2D#X	2B	2a	2a	2f#X	.	2D#X	2B	2f#X	2a
2E	2E	2B	2g	2g	2e	.	2E	2B	2e	2g
=30	=30	=30	=30	=30	=30	=30	=30	=30	=30	=30
2E-X	2E-X	2c	2a	2a	2fni	.	2E-X	2c	2fni	2a
2Dni	2Dni	2dni	2b	2b	2f	.	2Dni	2d	2f	2b
*	*v	*v	*	*	*	*	*	*	*	*
=31	=31	=31	=31	=31	=31	=31	=31	=31	=31
*	*	*	*	*^	*	*	*	*	*
2C	2C	2cc	2cc	2eni	2g\	.	2C	2e	2g	2cc
*	*^	*	*	*	*	*	*	*	*	*
2D	2D	2d	2a	2a	2ryy	2f#X\	.	2D	2d	2f#X	2a
*	*v	*v	*	*	*	*	*	*	*	*	*
=32	=32	=32	=32	=32	=32	=32	=32	=32	=32	=32
1GG	1GG	1g	1g	1B	1d\	.	1GG	1B	1g	1g
*	*	*	*	*v	*v	*	*	*	*	*
=33	=33	=33	=33	=33	=33	=33	=33	=33	=33
*	*^	*	*	*	*	*	*	*	*
1C	1C	1G	1e	1e	1c	.	1C	1G	1c	1e
=34	=34	=34	=34	=34	=34	=34	=34	=34	=34	=34
*	*	*	*	*	*^	*	*	*	*	*
2BB	2BB	2G	2g	2g	2ryy	2d\	.	2BB	2G	2d	2g
*	*v	*v	*	*	*	*	*	*	*	*	*
2AA	2AA	2a	2a	2c	2e\	.	2AA	2c	2e	2a
=35	=35	=35	=35	=35	=35	=35	=35	=35	=35	=35
2D	2D	2b	2b	2d	2f\	.	2D	(4d	2f	2b
.	.	.	.	.	.	.	.	4B)	.	.
*	*^	*	*	*	*	*	*	*	*	*
2E	2E	2G#X	2b	2b	2ryy	2e\	.	2E	2G#X	2e	2b
*	*v	*v	*	*	*	*	*	*	*	*	*
=36	=36	=36	=36	=36	=36	=36	=36	=36	=36	=36
1AA	1AA	1a	1a	1c	1e\	.	1AA	1A	1c	1a
*	*	*	*	*v	*v	*	*	*	*	*
=37	=37	=37	=37	=37	=37	=37	=37	=37	=37
*	*^	*	*	*	*	*	*	*	*
1A	1A	1A	1e	1e	1c	.	1A	1A	1c	1e
=38	=38	=38	=38	=38	=38	=38	=38	=38	=38	=38
2E	2E	2B	2g	2g	2e	.	2E	2B	2e	2g
4F	4F	[2A	2a	2a	2c	.	(4F	[2A	2c	2a
4E	4E	.	.	.	.	.	4E)	.	.	.
=39	=39	=39	=39	=39	=39	=39	=39	=39	=39	=39
2D	2D	2A]	2b	2b	2f	.	2D	2A]	2f	2b
2E	2E	2G#X	2b	2b	2e	.	2E	2G#X	2e	2b
=40	=40	=40	=40	=40	=40	=40	=40	=40	=40	=40
*	*	*	*	*	*^	*	*	*	*	*
1AA	1AA	1A	1a	1a	1e	1c\	.	1AA	1A	1c	1a
*	*v	*v	*	*	*	*	*	*	*	*	*
=41	=41	=41	=41	=41	=41	=41	=41	=41	=41	=41
1E	1E	1b	1b	1e	1g\	.	1E	1G	1e	1b
=42	=42	=42	=42	=42	=42	=42	=42	=42	=42	=42
2D#X	2D#X	2b	2b	2f	2a\	.	2D#X	2A	2f#X	2b
2E	2E	2b	2b	2e	2g\	.	2E	2G	2g	2b
=43	=43	=43	=43	=43	=43	=43	=43	=43	=43	=43
2BB	2BB	2ddni	2ddni	2dni	2g\	.	2BB	2d	2g	2dd
2C#X	2C#X	2a	2a	2e	[2g\	.	2C#X	2e	[2g	2a
=44	=44	=44	=44	=44	=44	=44	=44	=44	=44	=44
2D	2D	2a	2a	2d	4g\]	.	2D	2d	(4g]	2a
2E	2E	2g	2g	2B	2e\	.	2E	2B	2e	2g
=45	=45	=45	=45	=45	=45	=45	=45	=45	=45	=45
2C	2C	2a	2a	2c	4e\	.	2C	(4c	(4e	2a
2BB	2BB	2b	2b	2d	[2g\	.	2BB	2d	[2g	2b
=46	=46	=46	=46	=46	=46	=46	=46	=46	=46	=46
2AA	2AA	2cc	2cc	2c	2g\]	.	2AA	2c	2g]	2cc
2D	2D	2a	2a	4d	2f#X\	.	2D	(4d	2f#X	2a
=47	=47	=47	=47	=47	=47	=47	=47	=47	=47	=47
2GG	2GG	2g	2g	2B	2d\	.	2GG	2B	2g	2g
2E	2E	2cc	2cc	2c	2g\	.	2E	2c	2g	2cc
=48	=48	=48	=48	=48	=48	=48	=48	=48	=48	=48
2D	2D	2cc	2cc	2d	2f\	.	2D	2d	2f	2cc
2C	2C	2cc	2cc	2e	2g\	.	2C	2e	2g	2cc
=49	=49	=49	=49	=49	=49	=49	=49	=49	=49	=49
2GG#X	2GG#X	2b	2b	2d	2f\	.	2GG#X	2d	2f	2b
2AA	2AA	2a	2a	2c	2e\	.	2AA	2c	2e	2a
=50	=50	=50	=50	=50	=50	=50	=50	=50	=50	=50
4D	4D	2b	2b	4d	4f\	.	(4D	(4d	(4f	2b
4E	4E	.	.	4B	4gni\	.	4E)	4B)	4g)	.
4C#X	4C#X	2a	2a	[2e	[2g\	.	(4C#X	[2e	[2g	2a
4AA	4AA	.	.	.	.	.	4AA)	.	.	.
=51	=51	=51	=51	=51	=51	=51	=51	=51	=51	=51
2D	2D	2a	2a	4e]	4g\]	.	2D	(4e]	(4g]	2a
2F	2F	2a	2a	2cni	2f\	.	2F	2c	2f	2a
=52	=52	=52	=52	=52	=52	=52	=52	=52	=52	=52
1D	1D	2a	2a	1B	2f\	.	2D	2B	2f	2a
.	.	2g	2g	.	2e\	.	2D	2B	2e	2g
=53	=53	=53	=53	=53	=53	=53	=53	=53	=53	=53
2C	2C	2a	2a	4c	4e\	.	2C	(4c	(4e	2a
2BB	2BB	2b	2b	2d	2g\	.	2BB	2d	2g	2b
=54	=54	=54	=54	=54	=54	=54	=54	=54	=54	=54
4E	4E	2cc	2cc	2c	2.g\	.	(4E	2c	[2g	2cc
4D	4D	.	.	.	.	.	4D)	.	.	.
4C	4C	2a	2a	4e	.	.	(4C	(4e	(4g]	2a
4D	4D	.	.	4d	4f#X\	.	4D)	4d)	4f#X)	.
=55	=55	=55	=55	=55	=55	=55	=55	=55	=55	=55
2GG	2GG	2g	2g	2B	2d\	.	2GG	2B	2g	2g
2A	2A	2cc	2cc	2e	2a\	.	2A	2A	2e	2cc
=56	=56	=56	=56	=56	=56	=56	=56	=56	=56	=56
2G	2G	2cc	2cc	2e	2a\	.	2G	2A	2e	2cc
2F#X	2F#X	2cc	2cc	2d#X	2a\	.	2F#X	2A	2d#X	2cc
=57	=57	=57	=57	=57	=57	=57	=57	=57	=57	=57
2G#X	2G#X	2b	2b	2dni	2e\	.	2G#X	(4B	2dni	2b
.	.	.	.	.	.	.	.	4e)	.	.
2A	2A	2a	2a	2c	2e\	.	2A	2e	2c	2a
=58	=58	=58	=58	=58	=58	=58	=58	=58	=58	=58
4D	4D	2b	2b	2d	2f\	.	(4D	2d	2f	2b
4E	4E	.	.	.	.	.	4E)	.	.	.
2F	2F	2a	2a	2d	2f\	.	2F	2d	2f	2a
=59	=59	=59	=59	=59	=59	=59	=59	=59	=59	=59
2AA	2AA	2a	2a	2c#X	2e\	.	2AA	2c#X	2e	2a
2C#X	2C#X	2a	2a	2e	2g\	.	2C#X	2e	2g	2a
=60	=60	=60	=60	=60	=60	=60	=60	=60	=60	=60
2D	2D	2a	2a	2.d	2f\	.	2D	[2d	2f	2a
2E	2E	2g	2g	.	2g\	.	2E	(4d]	2g	2g
*	*	*	*	*v	*v	*	*	*	*	*
=61	=61	=61	=61	=61	=61	=61	=61	=61	=61
*	*^	*	*	*	*	*	*	*	*
4F	4F	2A	2a	2a	4c	.	(4F	2A	(4c	2a
4F#X	4F#X	.	.	.	2d	.	4F#X)	.	4d)	.
4G	4G	4d	2b	2b	.	.	(4G	(4d	(4d	2b
4G#X	4G#X	4B	.	.	4e	.	4G#X)	4B)	4e)	.
=62	=62	=62	=62	=62	=62	=62	=62	=62	=62	=62
2A	2A	2A	2cc	2cc	2e	.	2A	(4A	2e	2cc
.	.	.	.	.	.	.	.	4G)	.	.
2D	2D	4F#X	2a	2a	2d	.	2D	(4F#X	2d	2a
.	.	4c	.	.	.	.	.	4c)	.	.
*	*v	*v	*	*	*	*	*	*	*	*
=63	=63	=63	=63	=63	=63	=63	=63	=63	=63
*	*	*	*	*^	*	*	*	*	*
2GG	2GG	2g	2g	2B	2d\	.	2GG	2B	2d	2g
*	*^	*	*	*	*	*	*	*	*	*
2F#X	2F#X	2A	2cc	2cc	2%5ryy	2d#X\	.	2F#X	2A	2d#X	2cc
*	*	*	*	*	*v	*v	*	*	*	*	*
=64	=64	=64	=64	=64	=64	=64	=64	=64	=64	=64
2E	2E	2A	2cc	2cc	2e	.	2E	2A	2e	2cc
2D#X	2D#X	2A	2cc	2cc	2f#X	.	2D#X	2A	2f#X	2cc
=65	=65	=65	=65	=65	=65	=65	=65	=65	=65	=65
2Dni	2Dni	2G#X	2b	2b	1e	.	2Dni	2G#X	2e	2b
2C	2C	2A	2a	2a	.	.	2C	2A	2e	2a
*	*v	*v	*	*	*	*	*	*	*	*
=66	=66	=66	=66	=66	=66	=66	=66	=66	=66
*	*	*	*	*^	*	*	*	*	*
2GG#X	2GG#X	2b	2b	2d	2f\	.	2GG#X	2d	2f	2b
2AA	2AA	2a	2a	2c#X	4e\	.	2AA	2c#X	(4e	2a
=67	=67	=67	=67	=67	=67	=67	=67	=67	=67	=67
2D	2D	2a	2a	2d	2f\	.	2D	2d	2f	2a
2A	2A	2a	2a	2c#X	2e\	.	2A	2c#X	2e	2a
=68	=68	=68	=68	=68	=68	=68	=68	=68	=68	=68
2F	2F	2a	2a	2.d	2f\	.	2F	[2d	2f	2a
2E	2E	2g	2g	.	2g\	.	2E	(4d]	2g	2g
=69	=69	=69	=69	=69	=69	=69	=69	=69	=69	=69
2E-X	2E-X	2a	2a	2c	2f#X\	.	2E-X	2c	2f#X	2a
2D	2D	2b	2b	2d	2g\	.	2D	2d	2g	2b
=70	=70	=70	=70	=70	=70	=70	=70	=70	=70	=70
2C	2C	2cc	2cc	2eni	2g\	.	2C	2e	2g	2cc
*	*^	*	*	*	*	*	*	*	*	*
2D	2D	4d	2a	2a	4ryy	2f#X\	.	2D	(4d	2f#X	2a
.	.	4c	.	.	4ryy	.	.	.	4c)	.	.
*	*v	*v	*	*	*	*	*	*	*	*	*
=71	=71	=71	=71	=71	=71	=71	=71	=71	=71	=71
2GG	2GG	2g	2g	2B	2d\	.	2GG	2B	2g	2g
*	*^	*	*	*	*	*	*	*	*	*
2E	2E	2B-X	2cc	2cc	2%5ryy	2g\	.	2E	2B-X	2g	2cc
*	*	*	*	*	*v	*v	*	*	*	*	*
=72	=72	=72	=72	=72	=72	=72	=72	=72	=72	=72
2F	2F	2A	2cc	2cc	2f	.	2F	2A	2f	2cc
2F#X	2F#X	2A	2cc	2cc	2d	.	2F#X	2A	2d	2cc
=73	=73	=73	=73	=73	=73	=73	=73	=73	=73	=73
2G	2G	4B	2b	2b	4d	.	2G	(4B	(4d	2b
*	*v	*v	*	*	*	*	*	*	*	*
*	*	*	*v	*v	*	*	*	*	*
2A	2A	2a	2a	.	2A	(4d	(4f	2a
=74	=74	=74	=74	=74	=74	=74	=74	=74
*	*^	*	*^	*	*	*	*	*
*	*	*	*	*	*^	*	*	*	*	*
2D	2D	2d	2b	2b	2ryy	2f\	.	2D	2d	2f	2b
2C#X	2C#X	4A	2a	2a	2ryy	4e\	.	2C#X	2e	(4e	2a
*	*v	*v	*	*	*	*	*	*	*	*	*
=75	=75	=75	=75	=75	=75	=75	=75	=75	=75	=75
2D	2D	2a	2a	2d	4g\	.	2D	2d	(4g]	2a
2F	2F	2a	2a	2cni	2f\	.	2F	2c	2f	2a
=76	=76	=76	=76	=76	=76	=76	=76	=76	=76	=76
2BB	2BB	2a	2a	2d	2f\	.	2BB	2d	2f	2a
[2C	[2C	2g	2g	2e	2e/	.	[2C	2e	2e	2g
=77	=77	=77	=77	=77	=77	=77	=77	=77	=77	=77
2C]	2C]	2a	2a	2d	2f#X\	.	2C]	2d	2f#X	2a
2BB	2BB	2b	2b	2d	[2g\	.	2BB	2d	[2g	2b
=78	=78	=78	=78	=78	=78	=78	=78	=78	=78	=78
2AA	2AA	2cc	2cc	2c	2g\]	.	2AA	2c	2g]	2cc
*	*^	*	*	*	*	*	*	*	*	*
2D	2D	4d	2a	2a	2ryy	2f#X\	.	2D	(4d	2f#X	2a
*	*v	*v	*	*	*	*	*	*	*	*	*
=79	=79	=79	=79	=79	=79	=79	=79	=79	=79	=79
2GG	2GG	2g	2g	2B	2d\	.	2GG	2B	2g	2g
*	*^	*	*	*	*	*	*	*	*	*
2E	2E	2B-X	2cc	2cc	2%5ryy	2g\	.	2E	2B-X	2g	2cc
*	*	*	*	*	*v	*v	*	*	*	*	*
=80	=80	=80	=80	=80	=80	=80	=80	=80	=80	=80
2F	2F	2A	2cc	2cc	2f	.	2F	2A	2f	2cc
2F#X	2F#X	2A	2cc	2cc	2d	.	2F#X	2A	2d	2cc
=81	=81	=81	=81	=81	=81	=81	=81	=81	=81	=81
2G	2G	4B	2b	2b	4d	.	2G	(4B	(4d	2b
*	*v	*v	*	*	*	*	*	*	*	*
*	*	*	*v	*v	*	*	*	*	*
2A	2A	2a	2a	.	2A	(4d	(4f	2a
=82	=82	=82	=82	=82	=82	=82	=82	=82
*	*^	*	*^	*	*	*	*	*
*	*	*	*	*	*^	*	*	*	*	*
2D	2D	2d	2b	2b	2ryy	2f\	.	2D	2d	2f	2b
2C#X	2C#X	4A	2a	2a	2ryy	4e\	.	2C#X	2e	(4e	2a
*	*v	*v	*	*	*	*	*	*	*	*	*
=83	=83	=83	=83	=83	=83	=83	=83	=83	=83	=83
2D	2D	2a	2a	2d	4g\]	.	2D	2d	(4g]	2a
2F	2F	2a	2a	2cni	2f\	.	2F	2c	2f	2a
=84	=84	=84	=84	=84	=84	=84	=84	=84	=84	=84
2BB	2BB	2a	2a	2d	2f\	.	2BB	2d	2f	2a
[2C	[2C	2g	2g	2e	2e/	.	[2C	2e	2e	2g
=85	=85	=85	=85	=85	=85	=85	=85	=85	=85	=85
2C]	2C]	2a	2a	2d	2f#X\	.	2C]	2d	2f#X	2a
2BB	2BB	2b	2b	2d	[2g\	.	2BB	2d	[2g	2b
=86	=86	=86	=86	=86	=86	=86	=86	=86	=86	=86
2AA	2AA	2cc	2cc	2c	2g\]	.	2AA	2c	2g]	2cc
*	*^	*	*	*	*	*	*	*	*	*
2D	2D	4d	2a	2a	2ryy	2f#X\	.	2D	(4d	2f#X	2a
*	*v	*v	*	*	*	*	*	*	*	*	*
=87	=87	=87	=87	=87	=87	=87	=87	=87	=87	=87
2GG	2GG	2g	2g	2B	2d\	.	2GG	2B	2g	2g
*	*^	*	*	*	*	*	*	*	*	*
2E	2E	2B-X	2cc	2cc	2%5ryy	2g\	.	2E	2B-X	2g	2cc
*	*	*	*	*	*v	*v	*	*	*	*	*
=88	=88	=88	=88	=88	=88	=88	=88	=88	=88	=88
2F	2F	2A	2cc	2cc	2f	.	2F	2A	2f	2cc
2F#X	2F#X	2A	2cc	2cc	2d	.	2F#X	2A	2d	2cc
=89	=89	=89	=89	=89	=89	=89	=89	=89	=89	=89
2G	2G	4B	2b	2b	4d	.	2G	(4B	(4d	2b
*	*v	*v	*	*	*	*	*	*	*	*
*	*	*	*v	*v	*	*	*	*	*
2A	2A	2a	2a	.	2A	(4d	(4f	2a
=90	=90	=90	=90	=90	=90	=90	=90	=90
*	*^	*	*^	*	*	*	*	*
*	*	*	*	*	*^	*	*	*	*	*
2D	2D	2d	2b	2b	2ryy	2f\	.	2D	2d	2f	2b
2C#X	2C#X	4A	2a	2a	2ryy	4e\	.	2C#X	2e	(4e	2a
*	*v	*v	*	*	*	*	*	*	*	*	*
=91	=91	=91	=91	=91	=91	=91	=91	=91	=91	=91
2D	2D	2a	2a	2d	4g\]	.	2D	2d	(4g]	2a
2F	2F	2a	2a	2cni	2f\	.	2F	2c	2f	2a
=92	=92	=92	=92	=92	=92	=92	=92	=92	=92	=92
2BB	2BB	2a	2a	2d	2f\	.	2BB	2d	2f	2a
[2C	[2C	2g	2g	2e	2e/	.	[2C	2e	2e	2g
=93	=93	=93	=93	=93	=93	=93	=93	=93	=93	=93
2C]	2C]	2a	2a	2d	2f#X\	.	2C]	2d	2f#X	2a
2BB	2BB	2b	2b	2d	[2g\	.	2BB	2d	[2g	2b
=94	=94	=94	=94	=94	=94	=94	=94	=94	=94	=94
2AA	2AA	2cc	2cc	2c	2g\]	.	2AA	2c	2g]	2cc
*	*^	*	*	*	*	*	*	*	*	*
2D	2D	4d	2a	2a	2ryy	2f#X\	.	2D	(4d	2f#X	2a
*	*v	*v	*	*	*	*	*	*	*	*	*
=95	=95	=95	=95	=95	=95	=95	=95	=95	=95	=95
2GG	2GG	2g	2g	2B	2d\	.	2GG	2B	2g	2g
*	*	*	*	*	*^	*	*	*	*	*
[2G	[2G	2a	2a	2A	2e\	2c#X\	.	[2G	2c#X	2e	2a
=96	=96	=96	=96	=96	=96	=96	=96	=96	=96	=96	=96
2G]	2G]	2a	2a	2A	2d/	2d\	.	2G]	2d	2d	2a
*	*	*	*	*	*v	*v	*	*	*	*	*
[2F	[2F	2a	2a	2A	2d\	.	[2F	2A	2d	2a
=97	=97	=97	=97	=97	=97	=97	=97	=97	=97	=97
2F]	2F]	2g	2g	2B	2d\	.	2F]	2B	2d	2g
2E	2E	2b	2b	2e	2g\	.	2E	2e	2g	2b
=98	=98	=98	=98	=98	=98	=98	=98	=98	=98	=98
2C	2C	2cc	2cc	2e	2g\	.	2C	2e	2g	2cc
2C#X	2C#X	2a	2a	2e	2g\	.	2C#X	2e	2g	2a
=99	=99	=99	=99	=99	=99	=99	=99	=99	=99	=99
2D	2D	2a	2a	2d	2f\	.	2D	2d	2f	2a
2F	2F	2a	2a	2cni	2f\	.	2F	2c	2f	2a
=100	=100	=100	=100	=100	=100	=100	=100	=100	=100	=100
2D#X	2D#X	2a	2a	2c	2f#X\	.	2D#X	2c	2f#X	2a
2E	2E	2g	2g	2B	2e\	.	2E	2B	2g	2g
=101	=101	=101	=101	=101	=101	=101	=101	=101	=101	=101
2C	2C	2a	2a	2c	2e\	.	2C	2c	2e	2a
2AA	2AA	2cc	2cc	2c	2e\	.	2AA	2c	2e	2cc
=102	=102	=102	=102	=102	=102	=102	=102	=102	=102	=102
2BB	2BB	2g	2g	2d	2d/	.	2BB	2d	2d	2g
2GG	2GG	2g	2g	2B	2d\	.	2GG	2B	2d	2g
=103	=103	=103	=103	=103	=103	=103	=103	=103	=103	=103
*	*^	*	*	*	*	*	*	*	*	*
2C	2C	2G	2e	2e	2ryy	2c\	.	2C	2G	2c	2e
*	*v	*v	*	*	*	*^	*	*	*	*	*
[2G	[2G	2a	2a	2A	2e\	2c#X\	.	[2G	2c#X	2e	2a
=104	=104	=104	=104	=104	=104	=104	=104	=104	=104	=104	=104
2G]	2G]	2a	2a	2A	2d/	2d\	.	2G]	2d	2d	2a
*	*	*	*	*	*v	*v	*	*	*	*	*
[2F	[2F	2a	2a	2A	2d\	.	[2F	2A	2d	2a
=105	=105	=105	=105	=105	=105	=105	=105	=105	=105	=105
2F]	2F]	2g	2g	2B	2d\	.	2F]	2B	2d	2g
2E	2E	2b	2b	2e	2g\	.	2E	2e	2g	2b
=106	=106	=106	=106	=106	=106	=106	=106	=106	=106	=106
2C	2C	2cc	2cc	2e	2g\	.	2C	2e	2g	2cc
2C#X	2C#X	2a	2a	2e	2g\	.	2C#X	2e	2g	2a
=107	=107	=107	=107	=107	=107	=107	=107	=107	=107	=107
2D	2D	2a	2a	2d	2f\	.	2D	2d	2f	2a
2F	2F	2a	2a	2cni	2f\	.	2F	2c	2f	2a
=108	=108	=108	=108	=108	=108	=108	=108	=108	=108	=108
2D#X	2D#X	2a	2a	2c	2f#X\	.	2D#X	2c	2f#X	2a
2E	2E	2g	2g	2B	2e\	.	2E	2B	2g	2g
=109	=109	=109	=109	=109	=109	=109	=109	=109	=109	=109
2C	2C	2a	2a	2c	2e\	.	2C	2c	2e	2a
2AA	2AA	2cc	2cc	2c	2e\	.	2AA	2c	2e	2cc
=110	=110	=110	=110	=110	=110	=110	=110	=110	=110	=110
2BB	2BB	2g	2g	2d	2d/	.	2BB	2d	2d	2g
2GG	2GG	2g	2g	2B	2d\	.	2GG	2B	2d	2g
=111	=111	=111	=111	=111	=111	=111	=111	=111	=111	=111
*	*^	*	*	*	*	*	*	*	*	*
2C	2C	2G	2e	2e	2ryy	2c\	.	2C	2G	2c	2e
*	*v	*v	*	*	*	*^	*	*	*	*	*
[2G	[2G	2a	2a	2A	2e\	2c#X\	.	[2G	2c#X	2e	2a
=112	=112	=112	=112	=112	=112	=112	=112	=112	=112	=112	=112
2G]	2G]	2a	2a	2A	2d/	2d\	.	2G]	2d	2d	2a
*	*	*	*	*	*v	*v	*	*	*	*	*
[2F	[2F	2a	2a	2A	2d\	.	[2F	2A	2d	2a
=113	=113	=113	=113	=113	=113	=113	=113	=113	=113	=113
2F]	2F]	2g	2g	2B	2d\	.	2F]	2B	2d	2g
2E	2E	2b	2b	2e	2g\	.	2E	2e	2g	2b
=114	=114	=114	=114	=114	=114	=114	=114	=114	=114	=114
2C	2C	2cc	2cc	2e	2g\	.	2C	2e	2g	2cc
2C#X	2C#X	2a	2a	2e	2g\	.	2C#X	2e	2g	2a
=115	=115	=115	=115	=115	=115	=115	=115	=115	=115	=115
2D	2D	2a	2a	2d	2f\	.	2D	2d	2f	2a
2F	2F	2a	2a	2cni	2f\	.	2F	2c	2f	2a
=116	=116	=116	=116	=116	=116	=116	=116	=116	=116	=116
2D#X	2D#X	2a	2a	2c	2f#X\	.	2D#X	2c	2f#X	2a
2E	2E	2g	2g	2B	2e\	.	2E	2B	2g	2g
=117	=117	=117	=117	=117	=117	=117	=117	=117	=117	=117
2C	2C	2a	2a	2c	2e\	.	2C	2c	2e	2a
2AA	2AA	2cc	2cc	2c	2e\	.	2AA	2c	2e	2cc
=118	=118	=118	=118	=118	=118	=118	=118	=118	=118	=118
2BB	2BB	2g	2g	2d	2d/	.	2BB	2d	2d	2g
2GG	2GG	2g	2g	2B	2d\	.	2GG	2B	2d	2g
=119	=119	=119	=119	=119	=119	=119	=119	=119	=119	=119
*	*^	*	*	*	*	*	*	*	*	*
2C	2C	2G	2e	2e	2ryy	2c\	.	2C	2G	2c	2e
*	*v	*v	*	*	*	*^	*	*	*	*	*
[2G	[2G	2a	2a	2A	2e\	2c#X\	.	[2G	2c#X	2e	2a
=120	=120	=120	=120	=120	=120	=120	=120	=120	=120	=120	=120
2G]	2G]	2a	2a	2A	2d/	2d\	.	2G]	2d	2d	2a
*	*	*	*	*	*v	*v	*	*	*	*	*
[2F	[2F	2a	2a	2A	2d\	.	[2F	2A	2d	2a
=121	=121	=121	=121	=121	=121	=121	=121	=121	=121	=121
2F]	2F]	2g	2g	2B	2d\	.	2F]	2B	2d	2g
2E	2E	2b	2b	2e	2g\	.	2E	2e	2g	2b
=122	=122	=122	=122	=122	=122	=122	=122	=122	=122	=122
2C	2C	2cc	2cc	2e	2g\	.	2C	2e	2g	2cc
2C#X	2C#X	2a	2a	2e	2g\	.	2C#X	2e	2g	2a
=123	=123	=123	=123	=123	=123	=123	=123	=123	=123	=123
2D	2D	2a	2a	2d	2f\	.	2D	2d	2f	2a
2F	2F	2a	2a	2cni	2f\	.	2F	2c	2f	2a
=124	=124	=124	=124	=124	=124	=124	=124	=124	=124	=124
2D#X	2D#X	2a	2a	2c	2f#X\	.	2D#X	2c	2f#X	2a
2E	2E	2g	2g	2B	2e\	.	2E	2B	2g	2g
=125	=125	=125	=125	=125	=125	=125	=125	=125	=125	=125
2C	2C	2a	2a	2c	2e\	.	2C	2c	2e	2a
2AA	2AA	2cc	2cc	2c	2e\	.	2AA	2c	2e	2cc
=126	=126	=126	=126	=126	=126	=126	=126	=126	=126	=126
2BB	2BB	2g	2g	2d	2d/	.	2BB	2d	2d	2g
2GG	2GG	2g	2g	2B	2d\	.	2GG	2B	2d	2g
=127	=127	=127	=127	=127	=127	=127	=127	=127	=127	=127
*	*^	*	*	*	*	*	*	*	*	*
2C	2C	2G	2e	2e	2ryy	2c\	.	2C	2G	2c	2e
*	*v	*v	*	*	*	*^	*	*	*	*	*
[2G	[2G	2a	2a	2A	2e\	2c#X\	.	[2G	2c#X	2e	2a
=128	=128	=128	=128	=128	=128	=128	=128	=128	=128	=128	=128
2G]	2G]	2a	2a	2A	2d/	2d\	.	2G]	2d	2d	2a
*	*	*	*	*	*v	*v	*	*	*	*	*
[2F	[2F	2a	2a	2A	2d\	.	[2F	2A	2d	2a
=129	=129	=129	=129	=129	=129	=129	=129	=129	=129	=129
2F]	2F]	2g	2g	2B	2d\	.	2F]	2B	2d	2g
2E	2E	2b	2b	2e	2g\	.	2E	2e	2g	2b
=130	=130	=130	=130	=130	=130	=130	=130	=130	=130	=130
2C	2C	2cc	2cc	2e	2g\	.	2C	2e	2g	2cc
2C#X	2C#X	2a	2a	2e	2g\	.	2C#X	2e	2g	2a
=131	=131	=131	=131	=131	=131	=131	=131	=131	=131	=131
2D	2D	2a	2a	2d	2f\	.	2D	2d	2f	2a
2F	2F	2a	2a	2cni	2f\	.	2F	2c	2f	2a
=132	=132	=132	=132	=132	=132	=132	=132	=132	=132	=132
2D#X	2D#X	2a	2a	2c	2f#X\	.	2D#X	2c	2f#X	2a
2E	2E	2g	2g	2B	2e\	.	2E	2B	2g	2g
=133	=133	=133	=133	=133	=133	=133	=133	=133	=133	=133
2C	2C	2a	2a	2c	2e\	.	2C	2c	2e	2a
2AA	2AA	2cc	2cc	2c	2e\	.	2AA	2c	2e	2cc
=134	=134	=134	=134	=134	=134	=134	=134	=134	=134	=134
2BB	2BB	2g	2g	2d	2d/	.	2BB	2d	2d	2g
2GG	2GG	2g	2g	2B	2d\	.	2GG	2B	2d	2g
=135	=135	=135	=135	=135	=135	=135	=135	=135	=135	=135
*	*^	*	*	*	*	*	*	*	*	*
2C	2C	2G	2e	2e	2ryy	2c\	.	2C	2G	2c	2e
*	*v	*v	*	*	*	*^	*	*	*	*	*
[2G	[2G	2a	2a	2A	2e\	2c#X\	.	[2G	2c#X	2e	2a
=136	=136	=136	=136	=136	=136	=136	=136	=136	=136	=136	=136
2G]	2G]	2a	2a	2A	2d/	2d\	.	2G]	2d	2d	2a
*	*	*	*	*	*v	*v	*	*	*	*	*
[2F	[2F	2a	2a	2A	2d\	.	[2F	2A	2d	2a
=137	=137	=137	=137	=137	=137	=137	=137	=137	=137	=137
2F]	2F]	2g	2g	2B	2d\	.	2F]	2B	2d	2g
2E	2E	2b	2b	2e	2g\	.	2E	2e	2g	2b
=138	=138	=138	=138	=138	=138	=138	=138	=138	=138	=138
2C	2C	2cc	2cc	2e	2g\	.	2C	2e	2g	2cc
2C#X	2C#X	2a	2a	2e	2g\	.	2C#X	2e	2g	2a
=139	=139	=139	=139	=139	=139	=139	=139	=139	=139	=139
2D	2D	2a	2a	2d	2f\	.	2D	2d	2f	2a
2F	2F	2a	2a	2cni	2f\	.	2F	2c	2f	2a
=140	=140	=140	=140	=140	=140	=140	=140	=140	=140	=140
2D#X	2D#X	2a	2a	2c	2f#X\	.	2D#X	2c	2f#X	2a
2E	2E	2g	2g	2B	2e\	.	2E	2B	2g	2g
=141	=141	=141	=141	=141	=141	=141	=141	=141	=141	=141
2C	2C	2a	2a	2c	2e\	.	2C	2c	2e	2a
2AA	2AA	2cc	2cc	2c	2e\	.	2AA	2c	2e	2cc
=142	=142	=142	=142	=142	=142	=142	=142	=142	=142	=142
2BB	2BB	2g	2g	2d	2d/	.	2BB	2d	2d	2g
2GG	2GG	2g	2g	2B	2d\	.	2GG	2B	2d	2g
=143	=143	=143	=143	=143	=143	=143	=143	=143	=143	=143
*	*^	*	*	*	*	*	*	*	*	*
2C	2C	2G	2e	2e	2ryy	2c\	.	2C	2G	2c	2e
*	*v	*v	*	*	*	*	*	*^	*	*	*
2FF	2FF	2f	2f	2A	2c\	.	2F	2FF	2A	2c	2f
=144	=144	=144	=144	=144	=144	=144	=144	=144	=144	=144	=144
*	*^	*	*	*	*	*	*	*	*	*	*
2GG	2GG	2G	2d	2d	4ryy	2B\	.	4G	2GG	2G	2B	2d
.	.	.	.	.	4ryy	.	.	4GG	.	.	.	.
*	*v	*v	*	*	*	*	*	*	*	*	*	*
4AA	4AA	2f	2f	4c	4c/	.	4AA	4AA	(4c	(4c	2f
*	*^	*	*	*	*	*	*	*	*	*	*
4BB	4BB	4G	.	.	4%9ryy	4d\	.	4BB	4BB	4G)	4d)	.
*	*	*	*	*	*v	*v	*	*	*	*	*	*
=145	=145	=145	=145	=145	=145	=145	=145	=145	=145	=145	=145
2.C	2.C	2G	2e	2e	2c	.	2.C	2.C	2G	2c	2e
.	.	4F#X	2d	2d	4A	.	.	.	(4F#X	(4A	2d
*	*	*	*	*	*	*	*v	*v	*	*	*
[4BB	[4BB	4G	.	.	4B	.	[4BB	4G)	4B)	.
=146	=146	=146	=146	=146	=146	=146	=146	=146	=146	=146
4BB]	4BB]	4G	2e	2e	2c	.	4BB]	(4G	2c	2e
4AA	4AA	2.A	.	.	.	.	4AA	4A)	.	.
2D	2D	.	2f#X	2f#X	2d	.	2D	2A	2d	2f#X
*	*v	*v	*	*	*	*	*	*	*	*
=147	=147	=147	=147	=147	=147	=147	=147	=147	=147
*	*	*	*	*^	*	*	*	*	*
2GG	2GG	2g	2g	2B	2d\	.	2GG	2B	2d	2g
2Fni	2Fni	2g	2g	2B	2d\	.	2F	2B	2d	2g
=148	=148	=148	=148	=148	=148	=148	=148	=148	=148	=148
2E	2E	2g	2g	2c	2e\	.	2E	2c	2e	2g
2D	2D	2g	2g	2B-X	2e\	.	2D	2B-X	2e	2g
=149	=149	=149	=149	=149	=149	=149	=149	=149	=149	=149
2C#X	2C#X	2a	2a	2A	2e\	.	2C#X	2A	2e	2a
2D	2D	2f	2f	2A	2d\	.	2D	2A	2d	2f
=150	=150	=150	=150	=150	=150	=150	=150	=150	=150	=150
2GG	2GG	2g	2g	2B-X	2d\	.	2GG	2B-X	2d	2g
2GG#X	2GG#X	2f	2f	2Bn	2d\	.	2GG#X	2B	2d	2f
=151	=151	=151	=151	=151	=151	=151	=151	=151	=151	=151
2AA	2AA	2e	2e	2A	2c#X\	.	2AA	2A	2c#X	2e
*	*^	*	*	*	*	*	*^	*	*	*
4AA	4AA	2E	2c	2cn	4ryy	2A\	.	4A	4AA	2E	2A	2c
4GGni	4GGni	.	.	.	4ryy	.	.	4Gni	4GGni	.	.	.
*	*v	*v	*	*	*	*	*	*	*	*	*	*
=152	=152	=152	=152	=152	=152	=152	=152	=152	=152	=152	=152
4FF	4FF	2d	2d	2F	2A\	.	4F	4FF	2F	2A	2d
4EE	4EE	.	.	.	.	.	4E	4EE	.	.	.
4DD	4DD	2f	2f	4F	4A\	.	4D	4DD	(4F	(4A	2f
4GG	4GG	.	.	4G	4B\	.	4G	4GG	4G)	4B)	.
=153	=153	=153	=153	=153	=153	=153	=153	=153	=153	=153	=153
2C	2C	2e	2e	2G	2c\	.	2C	2C	2G	2c	2e
2GG	2GG	2d	2d	2G	2B\	.	2G	2GG	2G	2B	2d
=154	=154	=154	=154	=154	=154	=154	=154	=154	=154	=154	=154
2FF	2FF	2f	2f	2A	2c\	.	2F	2FF	2A	2c	2f
*	*^	*	*	*	*	*	*	*	*	*	*
2GG	2GG	4G	2d	2d	4ryy	2B\	.	2G	2GG	2G	2B	2d
.	.	4F	.	.	4%5ryy	.	.	.	.	.	.	.
*	*	*	*	*	*v	*v	*	*	*	*	*	*
=155	=155	=155	=155	=155	=155	=155	=155	=155	=155	=155	=155
2C	2C	2E	2c	2c	2G	.	2C	2C	2E	2c	2c
*	*	*	*	*	*	*	*v	*v	*	*	*
2C#X	2C#X	2A	2e	2e	2A	.	2C#X	2A	2A	2e
=156	=156	=156	=156	=156	=156	=156	=156	=156	=156	=156
*	*	*	*	*	*^	*	*	*	*	*
2D	2D	2A	2f	2f	2ryy	2d\	.	2D	2A	2d	2f
*	*v	*v	*	*	*	*	*	*	*	*	*
2Cni	2Cni	2g	2g	2cni	2e\	.	2Cni	2c	2e	2g
=157	=157	=157	=157	=157	=157	=157	=157	=157	=157	=157
*	*	*	*	*	*	*	*^	*	*	*
2FF	2FF	2a	2a	2c	2f\	.	2F	2FF	2c	2f	2a
*	*	*	*	*	*	*	*v	*v	*	*	*
2BB-X	2BB-X	2f	2f	2B-X	2d\	.	2BB-X	2B-X	2d	2f
=158	=158	=158	=158	=158	=158	=158	=158	=158	=158	=158
2GG	2GG	2g	2g	2B-X	2d\	.	2GG	2B-X	2d	2g
2GG#X	2GG#X	2f	2f	2Bn	2d\	.	2GG#X	2B	2d	2f
=159	=159	=159	=159	=159	=159	=159	=159	=159	=159	=159
2AA	2AA	2e	2e	2A	2c#X\	.	2AA	2A	2c#X	2e
*	*^	*	*	*	*	*	*	*	*	*
2D	2D	2A	2f	2f	2%17ryy	2d\	.	2D	2A	2d	2f
*	*	*	*	*	*v	*v	*	*	*	*	*
=160	=160	=160	=160	=160	=160	=160	=160	=160	=160	=160
2BB	2BB	2G	2d	2d	2d	.	2BB	2G	2d	2d
2GG	2GG	2G	2f	2f	2B	.	2GG	2G	2B	2f
=161	=161	=161	=161	=161	=161	=161	=161	=161	=161	=161
2C	2C	2G	2e	2e	2c	.	2C	2G	2c	2e
2F	2F	2A	2d	2d	2d	.	2F	2A	2d	2d
=162	=162	=162	=162	=162	=162	=162	=162	=162	=162	=162
2D	2D	2A	2f	2f	2d	.	2D	2A	2d	2f
2G	2G	2G	2d	2d	2B	.	2G	2G	2B	2d
=163	=163	=163	=163	=163	=163	=163	=163	=163	=163	=163
2C	2C	2E	2c	2c	2G	.	2C	2E	2c	2c
2AA	2AA	2A	2e	2e	2c#X	.	2AA	2A	2c#X	2e
=164	=164	=164	=164	=164	=164	=164	=164	=164	=164	=164
2D	2D	2A	2f	2f	2d	.	2D	2A	2d	2f
2C	2Cni	2cni	2g	2g	2e	.	2C	2c	2e	2g
=165	=165	=165	=165	=165	=165	=165	=165	=165	=165	=165
2C#X	2C#X	2A	2a	2a	2e	.	2C#X	2A	2e	2a
[2D	[2D	2A	2f	2f	2d	.	[2D	2A	2d	2f
=166	=166	=166	=166	=166	=166	=166	=166	=166	=166	=166
4D]	4D]	4B-X	2g	2g	2.e	.	4D]	(4B-X	2.e	2g
4C#X	4C#X	4A	.	.	.	.	4C#X	4A)	.	.
2D	2D	[2A	2f	2f	.	.	2D	2A	.	2f
.	.	.	.	.	8cniJ	8	.	.	8cJ	.
=167	=167	=167	=167	=167	=167	=167	=167	=167	=167	=167
2E	2E	4A]	2e	2e	2Bni	.	2E	(4A	2B	2e
2E	2E	2Gn	2e	2e	2B	.	2E	2G	2B	2e
*	*v	*v	*	*	*	*	*	*	*	*
=168	=168	=168	=168	=168	=168	=168	=168	=168	=168
*	*	*	*	*^	*	*	*	*	*
2C	2C	2g	2g	2c	2e\	.	2C	2c	2e	2g
2C#X	2C#X	2a	2a	2e	2a\	.	2C#X	2e	2a	2a
=169	=169	=169	=169	=169	=169	=169	=169	=169	=169	=169
2D	2D	2a	2a	2f	2a\	.	2D	2f	2a	2a
2BB	2BB	2b	2b	2d	2g#X\	.	2BB	2d	2g#X	2b
=170	=170	=170	=170	=170	=170	=170	=170	=170	=170	=170
2AA	2AA	2cc	2cc	2e	2a\	.	2AA	2e	2a	2cc
2D	2D	2a	2a	2d	2f\	.	2D	2d	2f	2a
=171	=171	=171	=171	=171	=171	=171	=171	=171	=171	=171
2AA	2AA	2a	2a	2c#X	2e\	.	2AA	2c#X	2e	2a
2F	2F	2a	2a	2d	2f\	.	2F	2d	2f	2a
=172	=172	=172	=172	=172	=172	=172	=172	=172	=172	=172
2BB	2BB	2a	2a	2d	2f\	.	2BB	2d	2f	2a
2C	2Cni	2g	2g	2e	2e/	.	2C	2e	2e	2g
=173	=173	=173	=173	=173	=173	=173	=173	=173	=173	=173
2F	2F	2a	2a	2c	2f\	.	2F	2c	2f	2a
4E	4E	2cc	2cc	2c	4g\	.	(4E	2c	(4g	2cc
4C	4C	.	.	.	4e\	.	4C)	.	4e)	.
=174	=174	=174	=174	=174	=174	=174	=174	=174	=174	=174
2BB	2BB	2g	2g	2d	2d/	.	2BB	2d	2d	2g
2GG	2GG	2g	2g	2B	2d\	.	2GG	2B	2d	2g
=175	=175	=175	=175	=175	=175	=175	=175	=175	=175	=175
*	*^	*	*	*	*	*	*	*	*	*
2C	2C	2G	2e	2e	2ryy	2c\	.	2C	2G	2c	2e
*	*v	*v	*	*	*	*	*	*	*	*	*
2A	2A	2a	2a	[2c	2e\	.	2A	[2c	2e	2a
=176	=176	=176	=176	=176	=176	=176	=176	=176	=176	=176
2F#X	2F#X	2a	2a	2c]	2d\	.	2F#X	2c]	2d	2a
2D	2D	2a	2a	2c	2f#X\	.	2D	2c	2f#X	2a
=177	=177	=177	=177	=177	=177	=177	=177	=177	=177	=177
2G	2G	2g	2g	2B	2d\	.	2G	2B	2g	2g
2E	2E	2b	2b	2e	2g\	.	2E	2e	2g	2b
=178	=178	=178	=178	=178	=178	=178	=178	=178	=178	=178
2C	2C	2cc	2cc	2e	2g\	.	2C	2e	2g	2cc
2C#X	2C#X	2a	2a	2e	4a\	.	2C#X	2e	(4a	2a
=179	=179	=179	=179	=179	=179	=179	=179	=179	=179	=179
2D	2D	2a	2a	2d	4g\]	.	2D	2d	(4g]	2a
2Cni	2Cni	2a	2a	2e	2e/	.	2Cni	2e	2e	2a
*	*	*	*	*v	*v	*	*	*	*	*
=180	=180	=180	=180	=180	=180	=180	=180	=180	=180
*	*^	*	*	*	*	*	*	*	*
2D	2D	2B	2a	2a	2f	.	2D	2B	2f	2a
2E	2E	4c	2g	2g	2e	.	2E	4c	2e	2g
=181	=181	=181	=181	=181	=181	=181	=181	=181	=181	=181
2F	2F	2A	2a	2a	4c	.	2F	2A	(4c	2a
4E	4E	2G	2cc	2cc	4g	.	(4E	2G	(4g	2cc
4C	4C	.	.	.	4e	.	4C)	.	4e)	.
=182	=182	=182	=182	=182	=182	=182	=182	=182	=182	=182
*	*	*	*	*	*^	*	*	*	*	*
4BB	4BB	4G	2g	2g	4ryy	2d\	.	(4BB	(4G	2d	2g
*	*v	*v	*	*	*	*	*	*	*	*	*
4GG	4GG	.	.	4B	.	.	4GG)	4B)	.	.
*	*^	*	*	*	*	*	*	*	*	*
4AA	4AA	4A	2g	2g	4ryy	4c\	.	(4AA	(4A	(4c	2g
4BB	4BB	4G	.	.	4ryy	4d\	.	4BB)	4G)	4d)	.
=183	=183	=183	=183	=183	=183	=183	=183	=183	=183	=183	=183
2C	2C	2G	2e	2e	2ryy	2c\	.	2C	2G	2c	2e
*	*v	*v	*	*	*	*	*	*	*	*	*
2A	2A	2a	2a	[2c	2e\	.	2A	[2c	2e	2a
=184	=184	=184	=184	=184	=184	=184	=184	=184	=184	=184
2F#X	2F#X	2a	2a	2c]	2d\	.	2F#X	2c]	2d	2a
2D	2D	2a	2a	2c	2f#X\	.	2D	2c	2f#X	2a
=185	=185	=185	=185	=185	=185	=185	=185	=185	=185	=185
2G	2G	2g	2g	2B	2d\	.	2G	2B	2g	2g
2E	2E	2b	2b	2e	2g\	.	2E	2e	2g	2b
=186	=186	=186	=186	=186	=186	=186	=186	=186	=186	=186
2C	2C	2cc	2cc	2e	2g\	.	2C	2e	2g	2cc
2C#X	2C#X	2a	2a	2e	4a\	.	2C#X	2e	(4a	2a
=187	=187	=187	=187	=187	=187	=187	=187	=187	=187	=187
2D	2D	2a	2a	2d	4g\]	.	2D	2d	(4g]	2a
2Cni	2Cni	2a	2a	2e	2e/	.	2Cni	2e	2e	2a
*	*	*	*	*v	*v	*	*	*	*	*
=188	=188	=188	=188	=188	=188	=188	=188	=188	=188
*	*^	*	*	*	*	*	*	*	*
2D	2D	2B	2a	2a	2f	.	2D	2B	2f	2a
2E	2E	4c	2g	2g	2e	.	2E	4c	2e	2g
=189	=189	=189	=189	=189	=189	=189	=189	=189	=189	=189
2F	2F	2A	2a	2a	4c	.	2F	2A	(4c	2a
4E	4E	2G	2cc	2cc	4g	.	(4E	2G	(4g	2cc
4C	4C	.	.	.	4e	.	4C)	.	4e)	.
=190	=190	=190	=190	=190	=190	=190	=190	=190	=190	=190
*	*	*	*	*	*^	*	*	*	*	*
4BB	4BB	4G	2g	2g	4ryy	2d\	.	(4BB	(4G	2d	2g
*	*v	*v	*	*	*	*	*	*	*	*	*
4GG	4GG	.	.	4B	.	.	4GG)	4B)	.	.
*	*^	*	*	*	*	*	*	*	*	*
4AA	4AA	4A	2g	2g	4ryy	4c\	.	(4AA	(4A	(4c	2g
4BB	4BB	4G	.	.	4ryy	4d\	.	4BB)	4G)	4d)	.
=191	=191	=191	=191	=191	=191	=191	=191	=191	=191	=191	=191
2C	2C	2G	2e	2e	2ryy	2c\	.	2C	2G	2c	2e
*	*v	*v	*	*	*	*	*	*	*	*	*
2A	2A	2a	2a	[2c	2e\	.	2A	[2c	2e	2a
=192	=192	=192	=192	=192	=192	=192	=192	=192	=192	=192
2F#X	2F#X	2a	2a	2c]	2d\	.	2F#X	2c]	2d	2a
2D	2D	2a	2a	2c	2f#X\	.	2D	2c	2f#X	2a
=193	=193	=193	=193	=193	=193	=193	=193	=193	=193	=193
2G	2G	2g	2g	2B	2d\	.	2G	2B	2g	2g
2E	2E	2b	2b	2e	2g\	.	2E	2e	2g	2b
=194	=194	=194	=194	=194	=194	=194	=194	=194	=194	=194
2C	2C	2cc	2cc	2e	2g\	.	2C	2e	2g	2cc
2C#X	2C#X	2a	2a	2e	4a\	.	2C#X	2e	(4a	2a
=195	=195	=195	=195	=195	=195	=195	=195	=195	=195	=195
2D	2D	2a	2a	2d	4g\]	.	2D	2d	(4g]	2a
2Cni	2Cni	2a	2a	2e	2e/	.	2Cni	2e	2e	2a
*	*	*	*	*v	*v	*	*	*	*	*
=196	=196	=196	=196	=196	=196	=196	=196	=196	=196
*	*^	*	*	*	*	*	*	*	*
2D	2D	2B	2a	2a	2f	.	2D	2B	2f	2a
2E	2E	4c	2g	2g	2e	.	2E	4c	2e	2g
=197	=197	=197	=197	=197	=197	=197	=197	=197	=197	=197
2F	2F	2A	2a	2a	4c	.	2F	2A	(4c	2a
4E	4E	2G	2cc	2cc	4g	.	(4E	2G	(4g	2cc
4C	4C	.	.	.	4e	.	4C)	.	4e)	.
=198	=198	=198	=198	=198	=198	=198	=198	=198	=198	=198
*	*	*	*	*	*^	*	*	*	*	*
4BB	4BB	4G	2g	2g	4ryy	2d\	.	(4BB	(4G	2d	2g
*	*v	*v	*	*	*	*	*	*	*	*	*
4GG	4GG	.	.	4B	.	.	4GG)	4B)	.	.
*	*^	*	*	*	*	*	*	*	*	*
4AA	4AA	4A	2g	2g	4ryy	4c\	.	(4AA	(4A	(4c	2g
4BB	4BB	4G	.	.	4ryy	4d\	.	4BB)	4G)	4d)	.
=199	=199	=199	=199	=199	=199	=199	=199	=199	=199	=199	=199
2C	2C	2G	2e	2e	2ryy	2c\	.	2C	2G	2c	2e
*	*v	*v	*	*	*	*	*	*^	*	*	*
2FF	2FF	2f	2f	2A	2c\	.	2F	2FF	2A	2c	2f
=200	=200	=200	=200	=200	=200	=200	=200	=200	=200	=200	=200
2GG	2GG	2d	2d	2G	2B\	.	2G	2GG	2G	2B	2d
2DD	2DD	2f	2f	4A	[2d\	.	2D	2DD	(4A	[2d	2f
=201	=201	=201	=201	=201	=201	=201	=201	=201	=201	=201	=201
2EE	2EE	2g	2g	2G	4d\]	.	2E	2EE	2G	(4d]	2g
*	*	*	*	*v	*v	*	*	*	*	*	*
2FF	2FF	2a	2a	4c	.	2F	2FF	(4c	(4c	2a
=202	=202	=202	=202	=202	=202	=202	=202	=202	=202	=202
*	*	*	*	*^	*	*	*	*	*	*
2GG	2GG	2g	2g	2B-X	2e\	.	4G	2GG	2B-X	2e	2g
.	.	.	.	.	.	.	4GG	.	.	.	.
2GG#X	2GG#X	2f	2f	2Bn	2d\	.	2GG#X	2GG#X	2B	2d	2f
=203	=203	=203	=203	=203	=203	=203	=203	=203	=203	=203	=203
2AA	2AA	2e	2e	2A	2c#X\	.	2AA	2AA	2A	2c#X	2e
*	*	*	*	*	*	*	*v	*v	*	*	*
2AA	2AA	2e	2e	2A	2c#\	.	2AA	2A	2c#	2e
=204	=204	=204	=204	=204	=204	=204	=204	=204	=204	=204
2D	2D	2f	2f	2A	2d\	.	2D	2A	2d	2f
2C	2Cni	2g	2g	2cni	2e\	.	2C	2c	2e	2g
=205	=205	=205	=205	=205	=205	=205	=205	=205	=205	=205
*	*	*	*	*	*	*	*^	*	*	*
2FF	2FF	2a	2a	2c	2e-X\	.	2F	2FF	2c	2e-X	2a
*	*	*	*	*	*	*	*v	*v	*	*	*
[2BB-X	[2BB-X	2f	2f	2B-X	2d\	.	[2BB-X	2B-X	2d	2f
=206	=206	=206	=206	=206	=206	=206	=206	=206	=206	=206
4BB-]	4BB-]	2g	2g	4G	4d\	.	(4BB-]	(4G	(4d	2g
2AA	2AA	.	.	2A	4c#X\	.	2AA)	2A)	4c#X)	.
.	.	2f	2f	.	2d\	.	.	.	2d	2f
4GG#X	4GG#X	.	.	4Bni	.	.	4GG#X	4Bi	.	.
=207	=207	=207	=207	=207	=207	=207	=207	=207	=207	=207
2AA	2AA	2e	2e	2A	2c#X\	.	2AA	2A	2c#X	2e
*	*^	*	*	*	*	*	*	*	*	*
2BBni	2BBni	2Gni	2gni	2gni	2ryy	2d\	.	2BBni	2G	2d	(2g
=208	=208	=208	=208	=208	=208	=208	=208	=208	=208	=208	=208
2C	2Cni	2G	2e	2e	2ryy	2cni\	.	2C	2G	[1cni	2e
*	*v	*v	*	*	*	*	*	*^	*	*	*
2AA	2AA	2c	2c	[2A	[2c\	.	2A	2AA	2A	.	2c
=209	=209	=209	=209	=209	=209	=209	=209	=209	=209	=209	=209
2FF	2FF	1d	1d	2A]	2c\]	.	2F	2FF	2A	2c]	1d)
2GG	2GG	.	.	4G	4B\	.	2G	2GG	4G	4B	.
.	.	.	.	[4B	[4d\	.	.	.	[4B	[4d	.
=210	=210	=210	=210	=210	=210	=210	=210	=210	=210	=210	=210
4GG#X	4GG#X	[1e	[1e	4B]	4d\]	.	4G#X	4GG#X	4B]	4d]	[1e
4EE	4EE	.	.	8AL	8c\L	.	4E	4EE	8AL	8cL	.
.	.	.	.	8G#XJ	8B\J	.	.	.	8G#XJ	8BJ	.
4AA	4AA	.	.	2A	2c\	.	4A	4AA	2A	2c	.
4C	4C	.	.	.	.	.	4c	4C	.	.	.
=211	=211	=211	=211	=211	=211	=211	=211	=211	=211	=211	=211
1EE	1EE	1e]	1e]	1G#X	1B\	.	1E	1EE	1G#X	1B	1e]
*	*	*	*v	*v	*v	*	*	*	*	*	*
*	*	*	*	*	*v	*v	*	*	*
==	==	==	==	==	==	==	==	==
*-	*-	*-	*-	*-	*-	*-	*-	*-
!!!system-decoration: {(s1,s2,s3,s4)}{(s5,s6)}{(s7,s8)}
!!!RDF**kern: i = editorial accidental
!!!RDF**kern: > = above
!!!RDF**kern: < = below
!!!AGN: chorale
!!!EED: Derek Remeš
!!!EED2: Victor Phan
!!!END: 2023/11/28
!!!ENC: Wolfgang Drescher
!!!EEV: 2023/11/29
!!!title: @{ONM}. @{OTL}